public/social/fb.svg

<svg width="100" height="99" viewBox="0 0 100 99" fill="none" xmlns="http://www.w3.org/2000/svg">
<path d="M96 0H4C1.7875 0 0 1.7875 0 4V95C0 97.2125 1.7875 99 4 99H96C98.2125 99 100 97.2125 100 95V4C100 1.7875 98.2125 0 96 0ZM94 93H69V60H82L83.9375 45.1875H68.9875V35.55C68.9875 31.175 70.2 28.2 76.4625 28.2H84.45V14.7C83.0625 14.5125 78.325 14.1 72.8 14.1C61.275 14.1 53.3875 21.1375 53.3875 34.05V45.175H40.3625V60H54V93H6V48.5V6H94V93Z" fill="white"/>
</svg>

<svg xmlns="http://www.w3.org/2000/svg" width="100" height="99" fill="none"><path fill="#fff" d="M96 0H4a4 4 0 0 0-4 4v91a4 4 0 0 0 4 4h92a4 4 0 0 0 4-4V4a4 4 0 0 0-4-4Zm-2 93H69V60h13l1.94-14.81H68.99v-9.64c0-4.37 1.21-7.35 7.47-7.35h7.99V14.7c-1.39-.19-6.13-.6-11.65-.6-11.52 0-19.41 7.04-19.41 19.95v11.13H40.36V60H54v33H6V6h88v87Z"/></svg>
